X: 531
T: Dry and Dusty
B: jims roots
M:2/4
L:1/8
Q: 1/4=100
K:D
V:1 
|:dB | "D"A2d2 fded | f2f2 edBd | A2d2 fded | [A2f2]"A"[A2a2] [A2a2]dB|
"D"A2d2 fded | [A2f2][A2a2] "A"[A2a2][Af][Ae] | "D"dABc dBAG | "(A)"[F2A2]"D"[D2A2] [D2A2]:|
|:dB | "D"A2[F2A2] [FA][EA][DA][EA] | [F2A2]A2 A2dB | A2F2 [GA][FA][EA][DA] | "C"E2[=C2E2] [C2E2]dB|
"D"A2[F2A] [FA][EA][DA][EA] | [F2A2]A2 A2Bc | [D2d2][D2d2] "G"B2AG | "A"[F2A2][E2A2] "D"[D2A2]:|
% abcbook-tune_id 6298c2455fcca1dc2fbc6482


% abcbook-boost 0
% abcbook-tablature 
% abcbook-transpose 
% abcbook-lastupdated 1654178374061
% abcbook-soundfonts 
% abcbook-repeats 1


